dist/gallery/favicon.svg

<svg fill="none" height="145" viewBox="0 0 145 145" width="145" xmlns="http://www.w3.org/2000/svg"><path d="m14.7419 67.0742-12.51548 16.5515c-1.2129 1.6041-.86927 3.8718.74617 5.057l58.76371 43.1103c1.6019 1.175 3.8689.855 5.0714-.735l75.9663-100.4666c1.212-1.604.869-3.8718-.747-5.0569l-16.804-12.3274c-1.602-1.1753-3.868-.8551-5.071.7352l-60.8998 80.5412c-.2062.2726-.6145.338-.9039.1256l-38.5351-28.2701c-1.6019-1.1752-3.8688-.8551-5.0713.7352z" fill="#ffb906" stroke="#353535" stroke-width="3"/></svg>

<svg width="145" height="145" viewBox="0 0 145 145" fill="none" xmlns="http://www.w3.org/2000/svg">
<path d="M14.7419 67.0742L2.22642 83.6257C1.01352 85.2298 1.35715 87.4975 2.97259 88.6827L61.7363 131.793C63.3382 132.968 65.6052 132.648 66.8077 131.058L142.774 30.5914C143.986 28.9874 143.643 26.7196 142.027 25.5345L125.223 13.2071C123.621 12.0318 121.355 12.352 120.152 13.9423L59.2522 94.4835C59.046 94.7561 58.6377 94.8215 58.3483 94.6091L19.8132 66.339C18.2113 65.1638 15.9444 65.4839 14.7419 67.0742Z" fill="#FFB906" stroke="#353535" stroke-width="3"/>
</svg>
